packages/icons/svgs/duotone/Source=salinity.svg

<svg width="24" height="24" viewBox="0 0 24 24" fill="none" xmlns="http://www.w3.org/2000/svg">
<path d="M12.083 11.75L12.2109 11.7559C12.8413 11.8173 13.335 12.3472 13.3379 12.9941C13.3408 13.6844 12.784 14.2469 12.0938 14.25H11.9063C11.2161 14.2469 10.6592 13.6844 10.6621 12.9941C10.6652 12.304 11.2269 11.7472 11.917 11.75H12.083ZM5.16798 10.8232C5.35682 10.2041 5.98282 9.83809 6.6045 9.96094L6.72852 9.99219L6.79786 10.0127L6.87598 10.0361C7.53799 10.2312 7.91646 10.9258 7.72169 11.5879C7.52675 12.25 6.83209 12.6293 6.16993 12.4346L6.07911 12.4072L5.99903 12.3828L5.87891 12.3398C5.29461 12.0949 4.97937 11.4423 5.16798 10.8232ZM17.8301 12.4346C17.1679 12.6293 16.4733 12.25 16.2783 11.5879C16.0836 10.9258 16.462 10.2312 17.124 10.0361L17.8301 12.4346ZM17.3955 9.96094C18.0172 9.83809 18.6432 10.2041 18.832 10.8232C19.0332 11.4834 18.6611 12.1814 18.001 12.3828L17.9209 12.4072C17.8908 12.4163 17.8603 12.4257 17.8301 12.4346L17.124 10.0361C17.1501 10.0285 17.1762 10.0205 17.2022 10.0127L17.2715 9.99219L17.3955 9.96094ZM1.31446 11.9551C1.75987 11.6625 2.34735 11.6833 2.77247 12.0176L2.82618 12.0596L2.92384 12.1426C3.38308 12.579 3.44601 13.3017 3.04981 13.8135C2.79018 14.1487 2.39366 14.3139 2.00001 14.2949C1.60635 14.3139 1.20984 14.1487 0.950202 13.8135C0.527614 13.2676 0.627932 12.4822 1.17384 12.0596L1.22755 12.0176L1.31446 11.9551ZM21.3145 11.9551C21.7599 11.6625 22.3474 11.6833 22.7725 12.0176L22.8262 12.0596L22.9238 12.1426C23.3831 12.579 23.446 13.3017 23.0498 13.8135C22.7902 14.1487 22.3937 14.3139 22 14.2949C21.6063 14.3139 21.2098 14.1487 20.9502 13.8135C20.5276 13.2676 20.6279 12.4822 21.1738 12.0596L21.2275 12.0176L21.3145 11.9551Z" fill="black" style="fill:black;fill-opacity:1;"/>
<g opacity="0.5">
<path d="M17.5 16.321C17.8075 16.321 18.0976 16.4627 18.2871 16.7048C18.8469 17.4198 19.5625 17.9975 20.3789 18.3952C21.0933 18.7432 21.869 18.945 22.6602 18.9899L23 18.9997L23.1025 19.0056C23.6065 19.0569 23.9999 19.4822 24 19.9997C24 20.5174 23.6067 20.9435 23.1025 20.9948L23 20.9997L22.5469 20.987C21.4913 20.927 20.4562 20.6584 19.5029 20.194C18.7648 19.8345 18.0916 19.3611 17.5 18.7985C16.9084 19.3612 16.2352 19.8345 15.4971 20.194C14.4077 20.7247 13.2117 20.9997 12 20.9997C10.7883 20.9997 9.59226 20.7247 8.50293 20.194C7.76483 19.8345 7.0916 19.3612 6.5 18.7985C5.90839 19.3611 5.23517 19.8345 4.49707 20.194C3.40774 20.7246 2.21168 20.9997 1 20.9997C0.447715 20.9997 -1.0142e-05 20.552 1.72292e-10 19.9997C0.000156868 19.4476 0.447814 18.9997 1 18.9997C1.9082 18.9997 2.80461 18.7929 3.62109 18.3952C4.43747 17.9975 5.15308 17.4198 5.71289 16.7048L5.78809 16.6189C5.97487 16.4294 6.23085 16.321 6.5 16.321C6.80747 16.321 7.09757 16.4627 7.28711 16.7048L7.50488 16.9665C8.02796 17.5616 8.66461 18.0482 9.37891 18.3962C10.1954 18.7939 11.0918 18.9997 12 18.9997C12.9082 18.9997 13.8046 18.7939 14.6211 18.3962C15.4376 17.9985 16.153 17.4199 16.7129 16.7048L16.7881 16.6189C16.9749 16.4294 17.2309 16.321 17.5 16.321Z" fill="black" style="fill:black;fill-opacity:1;"/>
<path d="M17.5 2.321C17.8075 2.321 18.0976 2.46269 18.2871 2.70479C18.8469 3.4198 19.5625 3.99752 20.3789 4.39522C21.0933 4.74321 21.869 4.94496 22.6602 4.98994L23 4.99971L23.1025 5.00557C23.6065 5.05692 23.9999 5.48219 24 5.99971C24 6.51738 23.6067 6.94348 23.1025 6.99483L23 6.99971L22.5469 6.98701C21.4913 6.92703 20.4562 6.65837 19.5029 6.19405C18.7646 5.83441 18.0908 5.36135 17.499 4.79854C17.3141 4.97436 17.1232 5.14397 16.9219 5.30147L16.9229 5.30244C16.0972 5.94889 15.1518 6.42646 14.1416 6.70772C13.1315 6.98893 12.076 7.06781 11.0352 6.94112C9.99423 6.81437 8.98838 6.48391 8.0752 5.96846C7.50199 5.64491 6.97189 5.25303 6.49707 4.80147C5.90617 5.3628 5.23392 5.83512 4.49707 6.19405C3.40774 6.72465 2.21168 6.99973 1 6.99971C0.447715 6.9997 -1.0142e-05 6.55199 1.72292e-10 5.99971C0.000156353 5.44756 0.447814 4.99971 1 4.99971C1.9082 4.99973 2.80461 4.79292 3.62109 4.39522C4.43747 3.99752 5.15308 3.4198 5.71289 2.70479L5.78809 2.61885C5.97487 2.42945 6.23085 2.321 6.5 2.321C6.80747 2.321 7.09757 2.46269 7.28711 2.70479C7.77155 3.32358 8.37327 3.84092 9.05762 4.22725C9.74204 4.61357 10.4962 4.86173 11.2764 4.95674C12.0566 5.05174 12.8483 4.99177 13.6055 4.78096C14.3626 4.57014 15.0706 4.21174 15.6895 3.72725L15.9688 3.4958C16.24 3.25568 16.4884 2.99056 16.7119 2.70479L16.7881 2.61885C16.9748 2.42952 17.2309 2.32107 17.5 2.321Z" fill="black" style="fill:black;fill-opacity:1;"/>
</g>
</svg>

<svg xmlns="http://www.w3.org/2000/svg" width="24" height="24" viewBox="0 0 24 24"><path d="m12.083 11.75.128.006a1.25 1.25 0 0 1-.117 2.494h-.188a1.25 1.25 0 0 1 .011-2.5zm-6.915-.927a1.25 1.25 0 0 1 1.436-.862l.125.031.069.02.078.024a1.25 1.25 0 0 1-.706 2.399l-.09-.028-.081-.024-.12-.043a1.25 1.25 0 0 1-.711-1.517m12.662 1.612a1.25 1.25 0 0 1-.706-2.399zm-.434-2.474A1.25 1.25 0 0 1 18 12.383l-.08.024-.09.028-.707-2.399.078-.023.07-.02zM1.313 11.955a1.25 1.25 0 0 1 1.458.063l.054.042.098.083A1.25 1.25 0 0 1 2 14.295a1.247 1.247 0 0 1-.826-2.235l.054-.042zm20 0a1.25 1.25 0 0 1 1.459.063l.053.042.098.083A1.25 1.25 0 0 1 22 14.295a1.247 1.247 0 0 1-.826-2.235l.053-.042z"/><path d="M17.5 16.321a1 1 0 0 1 .787.384 6 6 0 0 0 4.373 2.285L23 19l.102.006a1 1 0 0 1 0 1.989L23 21l-.453-.013a8 8 0 0 1-3.044-.793 8 8 0 0 1-2.003-1.395 8 8 0 0 1-2.003 1.395A7.985 7.985 0 0 1 6.5 18.799a8 8 0 0 1-2.003 1.395A8 8 0 0 1 1 21a1 1 0 1 1 0-2 5.99 5.99 0 0 0 4.713-2.295l.075-.086a1 1 0 0 1 1.5.086l.217.262a5.986 5.986 0 0 0 9.208-.262l.075-.086a1 1 0 0 1 .712-.298m0-14a1 1 0 0 1 .787.384A6 6 0 0 0 22.66 4.99L23 5l.102.006a1 1 0 0 1 0 1.989L23 7l-.453-.013a8 8 0 0 1-3.044-.793 8 8 0 0 1-2.004-1.395 8 8 0 0 1-.577.502v.001a7.99 7.99 0 0 1-10.425-.5 8 8 0 0 1-2 1.392A8 8 0 0 1 1 7a1 1 0 0 1 0-2 5.99 5.99 0 0 0 4.713-2.295l.075-.086a1 1 0 0 1 1.5.086 5.986 5.986 0 0 0 8.402 1.022l.279-.231q.408-.361.743-.791l.076-.086a1 1 0 0 1 .712-.298" opacity=".5"/></svg>
